X:1
T:Abendfeier in Venedig
T:Clara Schumann
T:Emanuel Geibel
T:Abendfeier in Venedig
T:CPDL   —   Creative Commons Attribution Non Commercial 3.0
T:CPDL   —   Creative Commons Attribution Non Commercial 3.0
T:CPDL   —   Creative Commons Attribution Non Commercial 3.0
T:CPDL   —   Creative Commons Attribution Non Commercial 3.0
T:CPDL   —   Creative Commons Attribution Non Commercial 3.0
T:CPDL   —   Creative Commons Attribution Non Commercial 3.0
C:Clara Schumann
Z:Emanuel Geibel
Z:CPDL   —   Creative Commons Attribution Non Commercial 3.0
%%score [ 1 ( 2 3 ) ( 4 5 ) ( 6 7 ) ]
L:1/8
M:4/4
K:F
V:1 treble nm="Sopran"
V:2 treble nm="Alt"
V:3 treble 
V:4 treble-8 nm="Tenor"
V:5 treble-8 
V:6 bass nm="Bass"
V:7 bass 
V:1
!p! A4 A2!<(! A2 | (B6 d2)!<)! |!>(! !fermata!c8!>)! |!p! c3 A G2 F2 | F8 | F3 F F2 F2 | A6 G2 | %7
w: 1. A- ve Ma-|ri- *|a!|Meer und Him- mel|ruh’n,|Meer und Him- mel|ruh’n, von|
w: 2. O heil'- ge|An- *|dacht,|wel- che je- des|Herz,|wel- che je- des|Herz mit|
 G4 G4 | A6 A2 | G2 G2 F2 F2 | E8 |!mf! A4!<(! A2 A2 | (A6 d2)!<)! |!>(! !fermata!c8!>)! | %14
w: al- len|Tür- men|hallt der Glo- cken|Ton.|A- ve Ma-|ri- *|a!|
w: lei- sen|Schau- ern|wun- der- bar durch-|dringt!|O sel'- ger|Glau- *|be,|
!p! e3 c A2 G2 | (G4 F2) z2 | A3 A A2 A2 | A6 A2 | A6 A2 | G2 G2!<(! G2 G2 | B6!<)!!>(! B2 | %21
w: Lasst vom ird’- schen|Tun, _|lasst vom ird’- schen|Tun, zur|Jung- frau|be- tet, zu der|Jung- frau|
w: der sich him- mel-|wärts, _|der sich him- mel-|wärts auf|des Ge-|be- tes wei- ßem|Fit- tich|
 A6!>)! A2 |!<(! d6 d2 | c2 c2 c2 c2!<)! |!mf! f6 f2 | e6!p! _e2 | (_e4 c2) A2 | (G4 ^F2) G2 | %28
w: Sohn, zur|Jung- frau|be- tet, zu der|Jung- frau|Sohn. Des|Him- * mels|Scha- * ren|
w: schwingt, auf|des Ge-|be- tes wei- ßem|Fit- tich|schwingt! In|mil- * de|Trä- * nen|
!<(! A2 A2 G2 A2!<)! | B6"^dim." d2 | (d4 B2) G2 | (=F4 E2) F2 | G2 G2 ^G2 G2 | A6 A2 | %34
w: sel- ber knie- en|nun mit|Li- * lien-|stä- * ben|vor des Va- ters|Thron, und|
w: löst sich da der|Schmerz, in-|des _ der|Freu- * de|Ju- bel sanf- ter|klingt. |
 (A4 B2) c2 | _e6 d2 |!<(! ^c2 c2 d2 =e2 | g4!<)! f2 f2 |!>(! (d4 B2) A2!>)! | A4 G4 | %40
w: durch _ die|Ro- sen-|wol- ken wehn die|Lie- der der|sel’- * gen|Geis- ter|
w: A- ve Ma-|ri- a!|Erd und Him- mel|schei- nen bei|die- * sem|Laut sich|
!>(! d3 B G2 =F2!>)! | F4 E2 E2 | F6 F2 | (F4 =E2) F2 | (F8- | F6 E2) | F8- | F4 z4 |] %48
w: fei- er- lich her-|nie- der, der|sel’- gen|Geis- ter her-|nie-||der.|_|
w: lie- bend zu ver-|ei- nen, sich|lie- bend|zu _ ver-|ei-||nen.|_|
V:2
!p! F4 F2!<(! F2 | (F6 B2)!<)! |!>(! !fermata!A8!>)! | z8 |!p! A3 F E2 D2 | D2 DD C2 B,2 | A,6 E2 | %7
w: 1. A- ve Ma-|ri- *|a!||Meer und Him- mel|ruh’n, Meer und Him- mel|ruh’n, *|
w: 2. O heil'- ge|An- *|dacht,||wel- che je- des|Herz, wel- che je- des|Herz *|
 E4 E4 | F6 F2 | E2 E2 D2 D2 | =B,8 |!mf! C4!<(! E2 E2 | F8!<)! |!>(! !fermata!E8!>)! | z8 | %15
w: ||||A- ve Ma-|ri-|a!||
w: ||||O sel'- ger|Glau-|be,||
!p! c3 A F2 E2 | F3 F F2 F2 | F6 F2 | F6 F2 | E2 E2!<(! E2 E2 | D6!<)!!>(! D2 | C6!>)! A2 | %22
w: Lasst vom ird’- schen|Tun, vom ird’- schen|Tun, *|||||
w: der sich him- mel-|wärts, sich him- mel-|wärts *|||||
!<(! F6 F2 | E2 E2 c2 =B2!<)! |!mf! A6 A2 | G4 z4 | z4 z2!p! _E2 | _E6 E2 |!<(! D2 D2 D2 D2!<)! | %29
w: ||||Des|Him- mels|Scha- ren sel- ber|
w: ||||In||löst sich da der|
 D3 D D2 z2 | z4 z2!p! D2 | D2 D2 D2 D2 | ^C2 C2 =B,2 B,2 | E6 _E2 | (_E4 E2) E2 | A6 B2 | %36
w: knie- en nun|mit|Li- lien- stä- ben|vor des Va- ters|Thron, *|||
w: Schmerz, _ _|in-|des der Freu- de|Ju- bel sanf- ter|klingt. *|||
!<(! G2 G2 G2 G2 | ^c4!<)! d2 z2 | z4 z2!p! ^F2 | ^F4 G4 | z4 z2 D2 | D4 D2 z2 | %42
w: |Lie- der|der|sel’- gen,|der|sel’- gen,|
w: |schei- nen|bei|die- sem,|bei|die- sem,|
 z2!>(! _E2 D2 C2!>)! | =B,4 B,4 |!p! C2 C2 D2 C2 | _B,8 | A,8- | A,4 z4 |] %48
w: der sel’- gen|Geis- ter|fei- er- lich her-|nie-|der.|_|
w: bei die- sem|Laut sich|lie- bend zu ver-|ei-|nen.|_|
V:3
 x8 | x8 | x8 | x8 | x8 | x8 | x8 | x8 | x8 | x8 | x8 | x8 | x8 | x8 | x8 | x8 | x8 | x8 | x8 | %19
w: |||||||||||||||||||
w: |||||||||||||||||||
 x8 | x8 | x8 | x8 | x8 | x8 | x8 | x8 | _E2 E2 E2 E2 | x8 | D6 x2 | x8 | x8 | x8 | x8 | x8 | x8 | %36
w: |||||||||||||||||
w: ||||||||mil- de Trä- nen|||||||||
 x8 | x8 | x8 | x8 | x8 | x8 | x8 | x8 | x8 | x8 | x8 | x8 |] %48
w: ||||||||||||
w: ||||||||||||
V:4
!p! c4 c2!<(! c2 | (d6 e2)!<)! |!>(! !fermata!f8!>)! | z8 | z8 |!p! B3 F E2 D2 | C6 c2 | c4 c4 | %8
w: 1. A- ve Ma-|ri- *|a!|||Meer und Him- mel|ruh’n, von|al- len|
w: 2. O heil'- ge|An- *|dacht,|||wel- che je- des|Herz mit|lei- sen|
 c6 c2 | c2 c2 A2 A2 | ^G8 |!mf! A4!<(! c2 c2 | (A6 =B2)!<)! |!>(! !fermata!c8!>)! | z8 | z8 | %16
w: Tür- men|hallt der Glo- cken|Ton.|A- ve Ma-|ri- *|a!|||
w: Schau- ern|wun- der- bar durch-|dringt!|O sel'- ger|Glau- *|be,|||
!p! d3 d d2 c2 | =B6 B2 | (=B4 c2) d2 | d2 d2!<(! c2 c2 | F6!<)!!>(! F2 | F6!>)! A2 |!<(! A6 A2 | %23
w: Lasst vom ird’- schen|Tun, zur|Jung- * frau|be- tet, zu der|Jung- frau|Sohn, zur|Jung- frau|
w: der sich him- mel-|wärts auf|des _ Ge-|be- tes wei- ßem|Fit- tich|schwingt, auf|des Ge-|
 A2 A2 A2 c2!<)! |!mf! c6 c2 | c4 z4 | z4 z2!p! c2 | c6 c2 |!<(! c2 c2 c2 c2!<)! | B3 B B2 z2 | %30
w: be- tet, zu der|Jung- frau|Sohn.|Des|Him- mels|Scha- ren sel- ber|knie- en nun|
w: be- tes wei- ßem|Fit- tich|schwingt!|In||löst sich da der|Schmerz, _ _|
 z4 z2!p! B2 | B2 B2 B2 A2 | G2 G2 F2 F2 | E6 F2 | (F4 G2) A2 | c6 d2 |!<(! =e2 A2 =B2 ^c2 | %37
w: mit|Li- lien- stä- ben|vor des Va- ters|Thron, und|durch _ die|Ro- sen-|wol- ken wehn die|
w: in-|des der Freu- de|Ju- bel sanf- ter|klingt. |A- ve Ma-|ri- a!|Erd und Him- mel|
 e4!<)! d2 z2 | z4 z2!p! _e2 | _e4 d4 | z4 z2 d2 | =B4 B2 z2 | z2!>(! c2 _B2 A2!>)! | G4 G4 | %44
w: Lie- der|der|sel’- gen,|der|sel’- gen,|der sel’- gen|Geis- ter|
w: schei- nen|bei|die- sem,|bei|die- sem,|bei die- sem|Laut sich|
!p! A2 A2 B2 A2 | G8 | F8- | F4 z4 |] %48
w: fei- er- lich her-|nie-|der.|_|
w: lie- bend zu ver-|ei-|nen.|_|
V:5
 x8 | x8 | x8 | x8 | x8 | x8 | x8 | x8 | x8 | x8 | x8 | x8 | x8 | x8 | x8 | x8 | x8 | x8 | x8 | %19
w: |||||||||||||||||||
w: |||||||||||||||||||
 x8 | x8 | x8 | x8 | x8 | x8 | x8 | x8 | c2 c2 c2 c2 | x8 | B6 x2 | x8 | x8 | x8 | x8 | x8 | x8 | %36
w: |||||||||||||||||
w: ||||||||mil- de Trä- nen|||||||||
 x8 | x8 | x8 | x8 | x8 | x8 | x8 | x8 | x8 | x8 | x8 | x8 |] %48
w: ||||||||||||
w: ||||||||||||
V:6
!p! F,4 F,2!<(! F,2 | F,8!<)! |!>(! !fermata!F,8!>)! | z8 | z8 |!p! F,,3 F,, F,,2 F,,2 | F,,6 C,2 | %7
 C,4 C,4 | F,6 F,2 | C,2 C,2 D,2 D,2 | E,8 |!mf! A,,4!<(! A,2 A,2 | D,8!<)! | %13
!>(! !fermata!A,,8!>)! | z8 | z8 |!p! D3 A, F,2 E,2 | D,6 G,,2 | (G,,4 A,,2) =B,,2 | %19
 C,2 C,2!<(! C,2 C,2 | B,,6!<)!!>(! B,,2 | F,,6!>)! A,2 |!<(! D,6 D,2 | A,,2 A,2 A,2 G,2!<)! | %24
!mf! F,6 F,2 | C,4 z4 | z4 z2!p! C2 | B,6 G,2 |!<(! ^F,2 F,2 =E,2 F,2!<)! | G,3 G, G,2 z2 | %30
 z4 z2!p! B,2 | A,2 A,2 G,2 F,2 | E,2 E,2 D,2 D,2 | ^C,6 =C,2 | (C,4 F,2) F,2 | B,,6 B,2 | %36
!<(! A,2 A,2 A,2 A,2 | D,4!<)! D,2 z2 | z4 z2!p! C2 | C4 B,4 | z4 z2 A,2 | ^G,4 G,2 z2 | %42
 z2!<(! A,,2 B,,2 C,2!<)! | D,4 G,,4 |!p! C,2 C,2 C,2 C,2 | C,8 | F,,8- | F,,4 z4 |] %48
V:7
 x8 | x8 | x8 | x8 | x8 | x8 | x8 | x8 | x8 | x8 | x8 | x8 | x8 | x8 | x8 | x8 | x8 | x8 | x8 | %19
 x8 | x8 | x8 | x8 | x8 | x8 | x8 | x8 | B,2 B,2 A,2 G,2 | x8 | G,6 x2 | x8 | x8 | x8 | x8 | x8 | %35
 x8 | x8 | x8 | x8 | x8 | x8 | x8 | x8 | x8 | x8 | x8 | x8 | x8 |] %48

